X: 100254
T: THE WEDDING RING REEL
R: reel
B: K\"ohler's Violin Repository, v.3, 1885 p.196 #2
F: http://www.archive.org/details/klersviolinrepos03rugg
Z: 2012 John Chambers <jc:trillian.mit.edu>
M: C|
L: 1/8
K: Gm
uA |\
B2dA B2dA | B2(fB) AFFA | B2(df) bfdB | (Ad)F^F G2G :|
uF |\
(DG)^FG (BG)A=F | (CF)=EF (AF)FA | (DG)^FG (BG)A=F | (Ad)D^F G2G=f |
(dg)ga (bg)af | (cf)fg (af)cf | (dg)bg (fb)dB | (Ad)D^F G2"^D.C."G |]

%%sep 2 1 500

